X: 58
T: Wuge fangyang
L: 1/16
M: 2/4
K: F
c2 c c c2 f2 [I:setbarnb 1]| 
c4G F E2 | 
F4c2 d c | 
B2 c2 G F E2 | 
C4c z d c | 
B z c2 G2 G F | 
E4G z G B | 
c4E4 | 
D C F2C4 |]

@@@ Tune index: 8932
